src/assets/duotone/Gemini.svg

<?xml version="1.0" encoding="UTF-8"?>
<svg width="24" height="24" viewBox="0 0 24 24" xmlns="http://www.w3.org/2000/svg">
 <path d="m19.23 4.1805 0.13-0.23999c0.15-0.27 0.11-0.60997-0.09-0.84997s-0.53-0.32003-0.83-0.21003c-4.15 1.52-8.73 1.52-12.88 0-0.29-0.11-0.62-0.01997-0.83 0.21003-0.2 0.24-0.24 0.56997-0.09 0.84997l0.13 0.22998c2.62 4.99 2.59 10.92-0.1 15.88-0.15 0.27-0.11 0.6101 0.09 0.8501s0.53 0.3199 0.82 0.2099c4.13-1.51 8.69-1.51 12.83 0 0.08 0.03 0.17 0.05 0.26 0.05 0.21 0 0.42-0.0899 0.57-0.2599 0.2-0.24 0.24-0.5701 0.09-0.8501-2.68-4.96-2.72-10.89-0.1-15.87z"/>
 <path d="m18.7 4.3296c-0.31 0-0.59-0.18999-0.7-0.48999-0.14-0.39001 0.06-0.82003 0.44-0.96003 1.08-0.4 2.14-0.91002 3.18-1.52 0.36-0.21 0.82-0.08999 1.03 0.26001 0.21 0.36 0.09 0.82003-0.26 1.03-1.11 0.66-2.26 1.21-3.42 1.64-0.1 0.03-0.18 0.04004-0.27 0.04004z" opacity=".4"/>
 <path d="m5.2999 4.3302c-0.09 0-0.17-0.00999-0.26-0.04999-1.16-0.43-2.31-0.98002-3.42-1.64-0.36-0.21-0.47-0.67003-0.26-1.03s0.67-0.47001 1.03-0.26001c1.03 0.61 2.1 1.12 3.18 1.52 0.39 0.14 0.59 0.58003 0.44 0.96003-0.12 0.31-0.41 0.5-0.71 0.5z" opacity=".4"/>
 <path d="m22 22.751c-0.13 0-0.26-0.03-0.38-0.11-1.03-0.61-2.1-1.13-3.2-1.53-0.39-0.14-0.59-0.57-0.45-0.96s0.57-0.59 0.96-0.45c1.19 0.43 2.35 0.99 3.46 1.65 0.36 0.21 0.47 0.67 0.26 1.03-0.15 0.24-0.4 0.37-0.65 0.37z" opacity=".4"/>
 <path d="m1.9999 22.751c-0.25 0-0.5-0.13-0.64-0.37-0.21-0.36-0.1-0.82 0.26-1.03 1.11-0.66 2.27-1.22 3.46-1.65 0.39-0.14 0.82 0.06 0.96 0.45s-0.06 0.82-0.45 0.96c-1.1 0.4-2.18 0.92-3.2 1.53-0.13 0.08-0.26 0.11-0.39 0.11z" opacity=".4"/>
</svg>

<svg width="24" height="24" viewBox="0 0 24 24"  xmlns="http://www.w3.org/2000/svg">
<path d="M19.2301 4.18053L19.3601 3.94054C19.5101 3.67054 19.4701 3.33057 19.2701 3.09057C19.0701 2.85057 18.7401 2.77054 18.4401 2.88054C14.2901 4.40054 9.71007 4.40054 5.56007 2.88054C5.27007 2.77054 4.94007 2.86057 4.73007 3.09057C4.53007 3.33057 4.49007 3.66054 4.64007 3.94054L4.77007 4.17052C7.39007 9.16052 7.36007 15.0905 4.67007 20.0505C4.52007 20.3205 4.56007 20.6606 4.76007 20.9006C4.96007 21.1406 5.29007 21.2205 5.58007 21.1105C9.71007 19.6005 14.2701 19.6005 18.4101 21.1105C18.4901 21.1405 18.5801 21.1605 18.6701 21.1605C18.8801 21.1605 19.0901 21.0706 19.2401 20.9006C19.4401 20.6606 19.4801 20.3305 19.3301 20.0505C16.6501 15.0905 16.6101 9.16053 19.2301 4.18053Z" />
<path opacity="0.4" d="M18.6998 4.3296C18.3898 4.3296 18.1098 4.13961 17.9998 3.83961C17.8598 3.4496 18.0598 3.01958 18.4398 2.87958C19.5198 2.47958 20.5798 1.96956 21.6198 1.35956C21.9798 1.14956 22.4398 1.26957 22.6498 1.61957C22.8598 1.97957 22.7398 2.4396 22.3898 2.6496C21.2798 3.3096 20.1298 3.85956 18.9698 4.28956C18.8698 4.31956 18.7898 4.3296 18.6998 4.3296Z" />
<path opacity="0.4" d="M5.29988 4.33016C5.20988 4.33016 5.12988 4.32017 5.03988 4.28017C3.87988 3.85017 2.72988 3.30015 1.61988 2.64015C1.25988 2.43015 1.14988 1.97012 1.35988 1.61012C1.56988 1.25012 2.02988 1.14011 2.38988 1.35011C3.41988 1.96011 4.48988 2.47013 5.56988 2.87013C5.95988 3.01013 6.15988 3.45016 6.00988 3.83016C5.88988 4.14016 5.59988 4.33016 5.29988 4.33016Z" />
<path opacity="0.4" d="M21.9999 22.7509C21.8699 22.7509 21.7399 22.7209 21.6199 22.6409C20.5899 22.0309 19.5199 21.5109 18.4199 21.1109C18.0299 20.9709 17.8299 20.5409 17.9699 20.1509C18.1099 19.7609 18.5399 19.5609 18.9299 19.7009C20.1199 20.1309 21.2799 20.6909 22.3899 21.3509C22.7499 21.5609 22.8599 22.0209 22.6499 22.3809C22.4999 22.6209 22.2499 22.7509 21.9999 22.7509Z" />
<path opacity="0.4" d="M1.99988 22.7509C1.74988 22.7509 1.49988 22.6209 1.35988 22.3809C1.14988 22.0209 1.25988 21.5609 1.61988 21.3509C2.72988 20.6909 3.88988 20.1309 5.07988 19.7009C5.46988 19.5609 5.89988 19.7609 6.03988 20.1509C6.17988 20.5409 5.97988 20.9709 5.58988 21.1109C4.48988 21.5109 3.40988 22.0309 2.38988 22.6409C2.25988 22.7209 2.12988 22.7509 1.99988 22.7509Z" />
</svg>
